X: 21919
T: Kitchen Girl, The
R: reel
M: 4/4
K: Amixolydian
|:"A" [e4a4] "G"[d4g4]|"A"efed c2 cd|e2 f2 gaba|"G"g2 e2 e2 cd|"A"[a2e2] a2 "G"gg a2|
"A"efed c2 cd|e2 f2 "G"gfed|1 "A"c2 A2 A2 cd:|2 "A"c2 A2 A2 AB||
K: Amin
|:"Am" c2 Ac "G"BAGB|"Am"ABAG E2 EG|A2 B2 c2 d2|"E"[B4e4] [B4e4]|"Am"cBAc "G"BAGB|
"Am"ABAG EGAB|c2 Ac "G"BAGB|1 "Am"A2 AA A2 AB:|2 "Am"A2 AA A4||

